X:57
T:Midnight Ramble. THO2.057, The
O:London
M:6/8
L:1/8
Q:3/8=100
B:Thompson's Compleat Coll. of 200 Favourite Country Dances, vol.2,1765
Z:Transcribed and edited by Fynn Titford-Mock, 2007
Z:abc's:AK/Fiddler's Companion/VMP 2009
K:Cm
c|=Bgg gdd|ecc =BGG|AFF GEE|FDG ECC|=Bgg gdd|ecc d=BG|
cGE AFG|ECC C2::G|ECG =B,G,c|=Bge|dG^f|g=fg cde|
=BGG G2d|ecc dGG|AFF BEE|FDD EFG|ECC C2:|

